flash-alert.svg

<svg fill="currentColor" viewBox="0 0 24 24"><path d="M5 2v11h3v9l7-12h-4l4-8m2 13h2v2h-2zm0-8h2v6h-2z"/></svg>

<svg  viewBox="0 0 24 24" fill="currentColor"><path  d="M5,2V13H8V22L15,10H11L15,2M17,15H19V17H17V15M17,7H19V13H17V7Z"/></svg>
